suite-common/icons/assets/icons/paper.svg

<svg xmlns="http://www.w3.org/2000/svg" xml:space="preserve" fill="none" viewBox="0 0 24 24">
  <path fill="#000" fill-rule="evenodd" d="M3.25 3.044c-.72.12-1.439.552-1.866 1.119a3.02 3.02 0 0 0-.009 3.664c.35.462.847.554 1.199.22.171-.161.226-.299.226-.561 0-.208-.017-.261-.141-.432a4 4 0 0 1-.268-.454c-.113-.23-.128-.299-.128-.6 0-.297.016-.374.125-.608a1.56 1.56 0 0 1 .724-.745c.202-.095.276-.107.648-.107.385 0 .439.01.651.117.285.144.56.432.702.734l.107.229.021 6.42.02 6.42.087.306a3.06 3.06 0 0 0 2.114 2.122l.318.092h11.44l.312-.091a3.04 3.04 0 0 0 2.151-2.269c.067-.295.056-.993-.022-1.32-.13-.551-.571-1.285-.871-1.449-.101-.055-.257-.075-.71-.091l-.58-.02-.02-5.2c-.019-4.931-.024-5.211-.095-5.42-.371-1.099-1.291-1.9-2.388-2.078-.319-.051-13.436-.05-13.747.002m13.47 1.478a1.48 1.48 0 0 1 1.219 1.061c.052.17.06.88.061 5.187v4.99h-4.122c-3.717 0-4.135.006-4.25.065-.307.155-.428.349-.428.689 0 .208.017.261.141.432.078.107.198.311.268.454.114.231.128.298.128.6-.001.285-.018.378-.11.577q-.332.724-1.083.881c-.68.142-1.354-.204-1.657-.849l-.107-.229-.021-6.42-.02-6.42-.087-.306a3.6 3.6 0 0 0-.189-.509 2 2 0 0 1-.103-.224c0-.042 10.092-.022 10.36.021M9.525 9.029c-.053.01-.182.104-.287.209-.156.156-.197.227-.22.381-.051.339.11.66.398.796.122.058.47.065 3.342.065 3.488 0 3.307.012 3.527-.226.156-.169.195-.267.195-.493 0-.214-.093-.449-.227-.569-.216-.196-.156-.192-3.502-.187-1.722.003-3.174.014-3.226.024m0 3c-.053.01-.182.104-.287.209-.156.156-.197.227-.22.381-.051.339.11.66.398.796.122.058.47.065 3.342.065 3.488 0 3.307.012 3.527-.226.156-.169.195-.267.195-.493 0-.214-.093-.449-.227-.569-.216-.196-.156-.192-3.502-.187-1.722.003-3.174.014-3.226.024m10.607 5.401c.071.153.088.263.088.571 0 .349-.011.403-.131.647a1.49 1.49 0 0 1-1.136.83c-.312.051-8.073.058-8.073.008 0-.019.053-.152.117-.294a2.84 2.84 0 0 0 .23-1.35 4 4 0 0 0-.049-.512l-.027-.09h8.893z"/>
</svg>

<svg xmlns="http://www.w3.org/2000/svg" xml:space="preserve" fill="none" viewBox="0 0 24 24"><path d="M3.250 3.044 C 2.530 3.164,1.811 3.596,1.384 4.163 C 0.557 5.263,0.553 6.743,1.375 7.827 C 1.725 8.289,2.222 8.381,2.574 8.047 C 2.745 7.886,2.800 7.748,2.800 7.486 C 2.800 7.278,2.783 7.225,2.659 7.054 C 2.581 6.947,2.461 6.743,2.391 6.600 C 2.278 6.370,2.263 6.301,2.263 6.000 C 2.263 5.703,2.279 5.626,2.388 5.392 C 2.542 5.063,2.809 4.789,3.112 4.647 C 3.314 4.552,3.388 4.540,3.760 4.540 C 4.145 4.540,4.199 4.550,4.411 4.657 C 4.696 4.801,4.971 5.089,5.113 5.391 L 5.220 5.620 5.241 12.040 L 5.261 18.460 5.348 18.766 C 5.641 19.800,6.426 20.588,7.462 20.888 L 7.780 20.980 13.500 20.980 L 19.220 20.980 19.532 20.889 C 20.628 20.572,21.432 19.723,21.683 18.620 C 21.750 18.325,21.739 17.627,21.661 17.300 C 21.531 16.749,21.090 16.015,20.790 15.851 C 20.689 15.796,20.533 15.776,20.080 15.760 L 19.500 15.740 19.480 10.540 C 19.461 5.609,19.456 5.329,19.385 5.120 C 19.014 4.021,18.094 3.220,16.997 3.042 C 16.678 2.991,3.561 2.992,3.250 3.044 M16.720 4.522 C 17.316 4.618,17.765 5.008,17.939 5.583 C 17.991 5.753,17.999 6.463,18.000 10.770 L 18.000 15.760 13.878 15.760 C 10.161 15.760,9.743 15.766,9.628 15.825 C 9.321 15.980,9.200 16.174,9.200 16.514 C 9.200 16.722,9.217 16.775,9.341 16.946 C 9.419 17.053,9.539 17.257,9.609 17.400 C 9.723 17.631,9.737 17.698,9.737 18.000 C 9.736 18.285,9.719 18.378,9.627 18.577 C 9.405 19.060,9.045 19.353,8.544 19.458 C 7.864 19.600,7.190 19.254,6.887 18.609 L 6.780 18.380 6.759 11.960 L 6.739 5.540 6.652 5.234 C 6.604 5.065,6.519 4.837,6.463 4.725 C 6.406 4.614,6.360 4.513,6.360 4.501 C 6.360 4.459,16.452 4.479,16.720 4.522 M9.525 9.029 C 9.472 9.039,9.343 9.133,9.238 9.238 C 9.082 9.394,9.041 9.465,9.018 9.619 C 8.967 9.958,9.128 10.279,9.416 10.415 C 9.538 10.473,9.886 10.480,12.758 10.480 C 16.246 10.480,16.065 10.492,16.285 10.254 C 16.441 10.085,16.480 9.987,16.480 9.761 C 16.480 9.547,16.387 9.312,16.253 9.192 C 16.037 8.996,16.097 9.000,12.751 9.005 C 11.029 9.008,9.577 9.019,9.525 9.029 M9.525 12.029 C 9.472 12.039,9.343 12.133,9.238 12.238 C 9.082 12.394,9.041 12.465,9.018 12.619 C 8.967 12.958,9.128 13.279,9.416 13.415 C 9.538 13.473,9.886 13.480,12.758 13.480 C 16.246 13.480,16.065 13.492,16.285 13.254 C 16.441 13.085,16.480 12.987,16.480 12.761 C 16.480 12.547,16.387 12.312,16.253 12.192 C 16.037 11.996,16.097 12.000,12.751 12.005 C 11.029 12.008,9.577 12.019,9.525 12.029 M20.132 17.430 C 20.203 17.583,20.220 17.693,20.220 18.001 C 20.220 18.350,20.209 18.404,20.089 18.648 C 19.865 19.103,19.465 19.395,18.953 19.478 C 18.641 19.529,10.880 19.536,10.880 19.486 C 10.880 19.467,10.933 19.334,10.997 19.192 C 11.178 18.793,11.255 18.343,11.227 17.842 C 11.215 17.610,11.192 17.380,11.178 17.330 L 11.151 17.240 15.598 17.240 L 20.044 17.240 20.132 17.430 " stroke="none" fill-rule="evenodd" fill="black"></path></svg>
